fa/file-shield.svg

<svg xmlns="http://www.w3.org/2000/svg" viewBox="0 0 576 512" height="1em" width="1em">
  <path d="M0 64C0 28.65 28.65 0 64 0h160v128c0 17.7 14.3 32 32 32h128v47l-92.8 37.2c-21.3 8.5-35.2 29.1-35.2 52 0 56.5 18.9 148 94.2 208.2-9 4.9-19.3 7.6-30.2 7.6H64c-35.35 0-64-28.7-64-64V64zm256 64V0l128 128H256zm167.1 97.7c5.7-2.3 12.1-2.3 17.8 0l120 48c9.1 3.7 15.1 12.5 15.1 22.3 0 63.3-25.9 168.8-134.8 214.2-5.9 2.4-12.5 2.4-18.4 0C313.9 464.8 288 359.3 288 296c0-9.8 5.1-18.6 15.1-22.3l120-48zm8.9 48.1v187.9c68.2-33 91.5-99 95.4-150.6L432 273.8z"/>
</svg>

<svg xmlns="http://www.w3.org/2000/svg" viewBox="0 0 576 512" height="1em" width="1em">
  <path d="M0 64C0 28.65 28.65 0 64 0H224V128C224 145.7 238.3 160 256 160H384V207L291.2 244.2C269.9 252.7 256 273.3 256 296.2C256 352.7 274.9 444.2 350.2 504.4C341.2 509.3 330.9 512 320 512H64C28.65 512 0 483.3 0 448V64zM256 128V0L384 128H256zM423.1 225.7C428.8 223.4 435.2 223.4 440.9 225.7L560.9 273.7C570 277.4 576 286.2 576 296C576 359.3 550.1 464.8 441.2 510.2C435.3 512.6 428.7 512.6 422.8 510.2C313.9 464.8 288 359.3 288 296C288 286.2 293.1 277.4 303.1 273.7L423.1 225.7zM432 273.8V461.7C500.2 428.7 523.5 362.7 527.4 311.1L432 273.8z"/>
</svg>
